X:1
T:The Dark Woman of Fairfax
M:6/8
L:1/8
R:double jig
C:D. Asherman
N:Copyright 2002 Doug Asherman
N:
N: For Lisa, for the past 20 years.
N: I think the Irish for this might be
N: 'Bean Dubh de Fairfax', but I don't have
N: enough faith in my Irish skills to say
N: for sure.
K:D
A|"D"dcd BAF|"G"DFA BAB|"D"dcd "G"BAF|"Bm"DFA "A"E2A|
"D"dcd BAF|"G"DFA Bcd| "D"efd "G"BAG|"A"FGE "D"D2:||:
e|"Bm"fef afd|"A"efe ede|"Bm"fef afd|"G"edB "A"A2 e|
"Bm"fef afd|"A"efe ede|"D"fed "G"BAG|"A"FGE "D"D2:|
